X:1
T:Lux Prima (Stainer)
T:Lux Prima (Stainer)
T:John Stainer, 1872
T:Public Domain Courtesy of the Cyber Hymnal™
C:John Stainer, 1872
Z:Public Domain
Z:Courtesy of the Cyber Hymnal™
%%score ( 1 2 ) ( 3 4 )
L:1/8
Q:1/4=110
M:2/2
K:C
V:1 treble 
V:2 treble 
V:3 bass 
V:4 bass 
V:1
 C3 C [CE]2 [EG]2 | [CF]2 A2 [Ac]2 G2 | [ce]3 [ce] [Bd]2 [GB]2 | [Ac]3 [Ac] [GB]2 [EG]2 | %4
 A2 (B2 c2) [CE]2 | [B,D]8 | [B,E]3 [B,E] [E^G]2 [GB]2 | [^Ge]2 [GB]2 [EG]2 E2 | %8
 [Ge]3 [Ge] [Ff]2 [Fd]2 | [EB]3 [EB] [Cc]2 [CF]2 | [CE]4 [B,D]4 | C8 |] %12
V:2
 C3 C x4 | x2 A2 G2 x2 | x8 | x8 | x2 G4 x2 | x8 | x8 | x6 E2 | x8 | x8 | x8 | C8 |] %12
V:3
 [C,C]3 [C,C] C2 C2 | [A,C]2 [F,F]2 [CF]2 [C,E]2 | [CE]3 [CE] [B,D]2 [G,B,]2 | %3
 [A,C]3 [A,C] [G,B,]2 [E,G,]2 | (C2 D2) [E,C]2 [C,G,]2 | ([G,B,]4 [F,A,]4) | %6
 [E,G,]3 [E,G,] [E,B,]2 [E,E]2 | [E,B,]2 [E,B,]2 [E,B,]2 [^G,B,]2 | [A,^C]3 [A,C] [D,D]2 [D,A,]2 | %9
 [E,^G,]3 [E,G,] A,2 [_A,C]2 | [G,C]4 (G,2 F,2) | [C,E,]8 |] %12
V:4
 x4 C2 C2 | x8 | x8 | x8 | F,4 x4 | x8 | x8 | x8 | x8 | x4 _A,2 x2 | x4 G,,4 | x8 |] %12

